build/flags/Serbia.svg

<svg xmlns="http://www.w3.org/2000/svg" fill="none" viewBox="0 0 28 28" focusable="false"><mask id="Serbia_svg__c" width="5.333" height="8" x="6" y="10.667" maskUnits="userSpaceOnUse"><g fill-rule="evenodd" filter="url(#Serbia_svg__a)"><path fill="#FFF" d="M6 14C6 13.3549 6.34366 11.9178 6.5375 11.1585C6.61181 10.8675 6.87495 10.6666 7.17534 10.6666L10.1592 10.6666C10.459 10.6666 10.7218 10.8667 10.7964 11.1571C10.9903 11.9119 11.3333 13.3402 11.3333 14C11.3333 14.7449 10.833 16.7007 10.6992 17.2104C10.6777 17.2924 10.6412 17.3676 10.5872 17.433C10.3317 17.7425 9.49918 18.6666 8.66667 18.6666C7.83364 18.6666 7.00061 17.7414 6.74565 17.4324C6.69202 17.3674 6.65559 17.2927 6.63405 17.2112C6.50018 16.7052 6 14.7634 6 14Z"/><path stroke="#969696" stroke-linejoin="bevel" stroke-opacity="0" stroke-width="0" d="M6.53748 11.1586C6.61178 10.8676 6.87495 10.6666 7.17534 10.6666L10.1592 10.6666C10.459 10.6666 10.7218 10.8668 10.7964 11.1572C10.9904 11.9121 11.3333 13.3402 11.3333 14C11.3333 14.7444 10.8338 16.6979 10.6995 17.2093C10.678 17.2913 10.6407 17.3682 10.5867 17.4336C10.3306 17.7438 9.49862 18.6666 8.66667 18.6666C7.83419 18.6666 7.00171 17.7426 6.74616 17.433C6.69252 17.368 6.65529 17.2915 6.63375 17.2101C6.49944 16.7023 6 14.7628 6 14C6 13.3549 6.34364 11.9179 6.53748 11.1586Z"/></g></mask><defs><filter id="Serbia_svg__a"><feColorMatrix values="0 0 0 0 1 0 0 0 0 1 0 0 0 0 1 0 0 0 1 0"/></filter></defs><mask id="Serbia_svg__b" width="28" height="20" x="0" y="4" maskUnits="userSpaceOnUse"><g filter="url(#Serbia_svg__a)"><rect width="28" height="20" y="4" fill="#FFF" rx="3"/><rect width="27.5" height="19.5" x=".25" y="4.25" stroke="#F5F5F5" stroke-width=".5" rx="2.75"/></g></mask><path fill="none" d="M0 0H28V28H0z"/><rect width="28" height="20" y="4" fill="#FFF" rx="3"/><rect width="27.5" height="19.5" x=".25" y="4.25" stroke="#D6D8DD" stroke-width=".5" rx="2.75"/><g mask="url(#Serbia_svg__b)"><path fill="#17508F" fill-rule="evenodd" d="M0 17.3333L28 17.3333L28 10.6666L0 10.6666L0 17.3333Z"/><path d="M28 17.3333L28 10.6666L0 10.6666L0 17.3333L28 17.3333Z"/><path fill="#E1444D" fill-rule="evenodd" d="M0 10.6667L28 10.6667L28 4L0 4L0 10.6667Z"/><path d="M28 10.6667L28 4L0 4L0 10.6667L28 10.6667Z"/><path fill="#FFF" fill-rule="evenodd" d="M6 14C6 13.3549 6.34366 11.9178 6.5375 11.1585C6.61181 10.8675 6.87495 10.6666 7.17534 10.6666L10.1592 10.6666C10.459 10.6666 10.7218 10.8667 10.7964 11.1571C10.9903 11.9119 11.3333 13.3402 11.3333 14C11.3333 14.7449 10.833 16.7007 10.6992 17.2104C10.6777 17.2924 10.6412 17.3676 10.5872 17.433C10.3317 17.7425 9.49918 18.6666 8.66667 18.6666C7.83364 18.6666 7.00061 17.7414 6.74565 17.4324C6.69202 17.3674 6.65559 17.2927 6.63405 17.2112C6.50018 16.7052 6 14.7634 6 14Z"/><path d="M6.53748 11.1586C6.61178 10.8676 6.87495 10.6666 7.17534 10.6666L10.1592 10.6666C10.459 10.6666 10.7218 10.8668 10.7964 11.1572C10.9904 11.9121 11.3333 13.3402 11.3333 14C11.3333 14.7444 10.8338 16.6979 10.6995 17.2093C10.678 17.2913 10.6407 17.3682 10.5867 17.4336C10.3306 17.7438 9.49862 18.6666 8.66667 18.6666C7.83419 18.6666 7.00171 17.7426 6.74616 17.433C6.69252 17.368 6.65529 17.2915 6.63375 17.2101C6.49944 16.7023 6 14.7628 6 14C6 13.3549 6.34364 11.9179 6.53748 11.1586Z"/><g mask="url(#Serbia_svg__c)"><path fill="none" d="M11.3334 11.3333L6.00004 18"/><path stroke="#E1444D" stroke-linecap="square" stroke-width="1.333" d="M11.3334 11.3333L6.00004 18"/><path fill="none" d="M6 0.666667L0.666667 7.33333" transform="matrix(-1 0 0 1 12 10.667)"/><path stroke="#E1444D" stroke-linecap="square" stroke-width="1.333" d="M6 0.666667L0.666667 7.33333" transform="matrix(-1 0 0 1 12 10.667)"/></g></g></svg>

<svg xmlns="http://www.w3.org/2000/svg" fill="none" viewBox="0 0 28 28" focusable="false"><path fill="none" d="M0 0h28v28H0z"/><rect width="28" height="20" y="4" fill="#FFF" rx="3"/><rect width="27.5" height="19.5" x=".25" y="4.25" stroke="#D6D8DD" stroke-width=".5" rx="3"/><mask id="Serbia_svg__a" width="28" height="20" x="0" y="4" mask-type="alpha" maskUnits="userSpaceOnUse"><rect width="28" height="20" y="4" fill="#FFF" rx="3"/><rect width="27.5" height="19.5" x=".25" y="4.25" stroke="#F5F5F5" stroke-width=".5" rx="3"/></mask><g mask="url(#Serbia_svg__a)"><path fill="#17508F" fill-rule="evenodd" d="M0 17.33h28v-6.67H0z"/><path d="M28 17.33v-6.67H0v6.67z"/></g><g mask="url(#Serbia_svg__a)"><path fill="#E1444D" fill-rule="evenodd" d="M0 10.66h28V4H0z"/><path d="M28 10.66V4H0v6.66z"/></g><g mask="url(#Serbia_svg__a)"><path fill="#FFF" fill-rule="evenodd" d="M6 14c0-.65.34-2.09.53-2.85.08-.29.34-.49.64-.49h2.98c.3 0 .57.2.64.49.2.76.54 2.19.54 2.85 0 .74-.5 2.7-.64 3.21-.02.08-.05.15-.11.22-.25.31-1.09 1.23-1.92 1.23S7 17.74 6.74 17.43a.7.7 0 0 1-.11-.22C6.5 16.7 6 14.76 6 14"/><path d="M6.53 11.15c.08-.29.34-.49.64-.49h2.98c.3 0 .57.2.64.49.2.76.54 2.19.54 2.85 0 .74-.5 2.69-.64 3.2-.02.09-.05.16-.11.23-.25.31-1.09 1.23-1.92 1.23S7 17.74 6.74 17.43a.7.7 0 0 1-.11-.22C6.49 16.7 6 14.76 6 14c0-.65.34-2.09.53-2.85"/><mask id="Serbia_svg__b" width="5.333" height="8" x="6" y="10.667" mask-type="alpha" maskUnits="userSpaceOnUse"><path fill="#FFF" fill-rule="evenodd" d="M6 14c0-.65.34-2.09.53-2.85.08-.29.34-.49.64-.49h2.98c.3 0 .57.2.64.49.2.76.54 2.19.54 2.85 0 .74-.5 2.7-.64 3.21-.02.08-.05.15-.11.22-.25.31-1.09 1.23-1.92 1.23S7 17.74 6.74 17.43a.7.7 0 0 1-.11-.22C6.5 16.7 6 14.76 6 14"/><path stroke="#979797" stroke-opacity="0" stroke-width="0" d="M6.53 11.15c.08-.29.34-.49.64-.49h2.98c.3 0 .57.2.64.49.2.76.54 2.19.54 2.85 0 .74-.5 2.69-.64 3.2-.02.09-.05.16-.11.23-.25.31-1.09 1.23-1.92 1.23S7 17.74 6.74 17.43a.7.7 0 0 1-.11-.22C6.49 16.7 6 14.76 6 14c0-.65.34-2.09.53-2.85Z"/></mask><g mask="url(#Serbia_svg__b)"><path fill="none" d="m10.8 10.93.42-.54 1.05.83-.43.54zM6.53 18.4l-.43.53-1.04-.83.43-.54z"/><path stroke="#E1444D" stroke-linecap="square" stroke-width="1.333" d="M11.33 11.33 6 18"/></g><g mask="url(#Serbia_svg__b)"><path fill="none" d="m6.53 10.93-.43-.54-1.04.83.43.54zm4.27 7.47.42.53 1.05-.83-.43-.54z"/><path stroke="#E1444D" stroke-linecap="square" stroke-width="1.333" d="M6 11.33 11.33 18"/></g></g></svg>
